fs/person_link_16_regular.svg

<svg viewBox="0 0 16 16" fill="none" xmlns="http://www.w3.org/2000/svg" height="1em" width="1em">
  <path d="M5.97502 13.9237C3.45904 13.5374 2 11.7463 2 10V9.5C2 8.67157 2.67157 8 3.5 8H8.5C7.54635 8 6.68178 8.38141 6.05051 9H3.5C3.22386 9 3 9.22386 3 9.5V10C3 11.0591 3.77727 12.1859 5.21328 12.7059C5.38159 13.1645 5.64317 13.5781 5.97502 13.9237ZM7 1.5C8.51878 1.5 9.75 2.73122 9.75 4.25C9.75 5.76878 8.51878 7 7 7C5.48122 7 4.25 5.76878 4.25 4.25C4.25 2.73122 5.48122 1.5 7 1.5ZM7 2.5C6.0335 2.5 5.25 3.2835 5.25 4.25C5.25 5.2165 6.0335 6 7 6C7.9665 6 8.75 5.2165 8.75 4.25C8.75 3.2835 7.9665 2.5 7 2.5ZM8.5 9C7.11929 9 6 10.1193 6 11.5C6 12.8807 7.11929 14 8.5 14H9C9.27614 14 9.5 13.7761 9.5 13.5C9.5 13.2239 9.27614 13 9 13H8.5C7.67157 13 7 12.3284 7 11.5C7 10.6716 7.67157 10 8.5 10H9C9.27614 10 9.5 9.77614 9.5 9.5C9.5 9.22386 9.27614 9 9 9H8.5ZM12 9C11.7239 9 11.5 9.22386 11.5 9.5C11.5 9.77614 11.7239 10 12 10H12.5C13.3284 10 14 10.6716 14 11.5C14 12.3284 13.3284 13 12.5 13H12C11.7239 13 11.5 13.2239 11.5 13.5C11.5 13.7761 11.7239 14 12 14H12.5C13.8807 14 15 12.8807 15 11.5C15 10.1193 13.8807 9 12.5 9H12ZM8 11.5C8 11.2239 8.22386 11 8.5 11H12.5C12.7761 11 13 11.2239 13 11.5C13 11.7761 12.7761 12 12.5 12H8.5C8.22386 12 8 11.7761 8 11.5Z" fill="#212121"/>
</svg>

<svg viewBox="0 0 16 16" fill="none" xmlns="http://www.w3.org/2000/svg" height="1em" width="1em">
  <path d="M5.975 13.924C3.459 13.537 2 11.746 2 10v-.5A1.5 1.5 0 0 1 3.5 8h5c-.954 0-1.818.381-2.45 1H3.5a.5.5 0 0 0-.5.5v.5c0 1.06.777 2.186 2.213 2.706a3.5 3.5 0 0 0 .762 1.218ZM7 1.5A2.75 2.75 0 1 1 7 7a2.75 2.75 0 0 1 0-5.5Zm0 1A1.75 1.75 0 1 0 7 6a1.75 1.75 0 0 0 0-3.5ZM8.5 9a2.5 2.5 0 0 0 0 5H9a.5.5 0 0 0 0-1h-.5a1.5 1.5 0 0 1 0-3H9a.5.5 0 0 0 0-1h-.5ZM12 9a.5.5 0 0 0 0 1h.5a1.5 1.5 0 0 1 0 3H12a.5.5 0 0 0 0 1h.5a2.5 2.5 0 0 0 0-5H12Zm-4 2.5a.5.5 0 0 1 .5-.5h4a.5.5 0 0 1 0 1h-4a.5.5 0 0 1-.5-.5Z" fill="#212121"/>
</svg>
